symbolic/64x64/apps/1password.svg

<svg xmlns="http://www.w3.org/2000/svg" width="64" height="64" version="1.1">
 <circle style="opacity:0.2" cx="32" cy="33" r="28"/>
 <circle style="fill:#e4e4e4" cx="32" cy="32" r="28"/>
 <circle style="opacity:0.2" cx="32" cy="32" r="8"/>
 <path style="opacity:0.1" d="M 29.333333,21 C 28.594667,21 28,21.594667 28,22.333333 v 5.403646 c 0,0 1.445312,1.270242 1.445312,2.127605 C 29.445312,30.721946 28,31.992188 28,31.992188 V 43.666667 C 28,44.405333 28.594667,45 29.333333,45 h 5.333334 C 35.405333,45 36,44.405333 36,43.666667 v -5.382813 l -0.01307,-0.01823 c 0,0 -1.507567,-1.324551 -1.507812,-2.218751 -2.44e-4,-0.894916 1.507812,-2.221351 1.507812,-2.221351 L 36,33.807292 V 22.333333 C 36,21.594667 35.405333,21 34.666667,21 Z"/>
 <path style="fill:#394045" d="M 29.333333,20 C 28.594667,20 28,20.594667 28,21.333333 v 5.403646 c 0,0 1.445312,1.270242 1.445312,2.127605 C 29.445312,29.721946 28,30.992188 28,30.992188 V 42.666667 C 28,43.405333 28.594667,44 29.333333,44 h 5.333334 C 35.405333,44 36,43.405333 36,42.666667 v -5.382813 l -0.01307,-0.01823 c 0,0 -1.507567,-1.324551 -1.507812,-2.218751 -2.44e-4,-0.894916 1.507812,-2.221351 1.507812,-2.221351 L 36,32.807292 V 21.333333 C 36,20.594667 35.405333,20 34.666667,20 Z"/>
 <path style="opacity:0.1" d="M 32,11 C 19.882308,11 10,20.882308 10,33 10,45.117692 19.882308,55 32,55 44.117692,55 54,45.117692 54,33 54,20.882308 44.117692,11 32,11 Z m 0,5 c 9.422399,0 17,7.577601 17,17 0,9.422399 -7.577601,17 -17,17 -9.422399,0 -17,-7.577601 -17,-17 0,-9.422399 7.577601,-17 17,-17 z"/>
 <path style="fill:#0076e2" d="M 32 10 C 19.882308 10 10 19.882308 10 32 C 10 44.117692 19.882308 54 32 54 C 44.117692 54 54 44.117692 54 32 C 54 19.882308 44.117692 10 32 10 z M 32 15 C 41.422399 15 49 22.577601 49 32 C 49 41.422399 41.422399 49 32 49 C 22.577601 49 15 41.422399 15 32 C 15 22.577601 22.577601 15 32 15 z"/>
 <path style="fill:#ffffff;opacity:0.2" d="M 32 4 A 28 28 0 0 0 4 32 A 28 28 0 0 0 4.0214844 32.585938 A 28 28 0 0 1 32 5 A 28 28 0 0 1 59.978516 32.414062 A 28 28 0 0 0 60 32 A 28 28 0 0 0 32 4 z"/>
</svg>

<svg xmlns="http://www.w3.org/2000/svg" width="64" height="64"><circle style="opacity:.2" cx="32" cy="33" r="28"/><circle style="fill:#e4e4e4" cx="32" cy="32" r="28"/><circle style="opacity:.2" cx="32" cy="32" r="8"/><path style="opacity:.1" d="M29.333 21A1.33 1.33 0 0 0 28 22.333v5.404s1.445 1.27 1.445 2.128c0 .857-1.445 2.127-1.445 2.127v11.675A1.33 1.33 0 0 0 29.333 45h5.334A1.33 1.33 0 0 0 36 43.667v-5.383l-.013-.018s-1.508-1.325-1.508-2.22c0-.894 1.508-2.22 1.508-2.22l.013-.019V22.333A1.33 1.33 0 0 0 34.667 21z"/><path style="fill:#394045" d="M29.333 20A1.33 1.33 0 0 0 28 21.333v5.404s1.445 1.27 1.445 2.128c0 .857-1.445 2.127-1.445 2.127v11.675A1.33 1.33 0 0 0 29.333 44h5.334A1.33 1.33 0 0 0 36 42.667v-5.383l-.013-.018s-1.508-1.325-1.508-2.22c0-.894 1.508-2.22 1.508-2.22l.013-.019V21.333A1.33 1.33 0 0 0 34.667 20z"/><path style="opacity:.1" d="M32 11c-12.118 0-22 9.882-22 22s9.882 22 22 22 22-9.882 22-22-9.882-22-22-22zm0 5c9.422 0 17 7.578 17 17s-7.578 17-17 17-17-7.578-17-17 7.578-17 17-17z"/><path style="fill:#0076e2" d="M32 10c-12.118 0-22 9.882-22 22s9.882 22 22 22 22-9.882 22-22-9.882-22-22-22zm0 5c9.422 0 17 7.578 17 17s-7.578 17-17 17-17-7.578-17-17 7.578-17 17-17z"/><path style="fill:#fff;opacity:.2" d="M32 4A28 28 0 0 0 4 32a28 28 0 0 0 .021.586A28 28 0 0 1 32 5a28 28 0 0 1 27.979 27.414A28 28 0 0 0 60 32 28 28 0 0 0 32 4z"/></svg>
